public/img/general/logos/infinity_logo_black.svg

<svg width="67" height="40" viewBox="0 0 67 40" fill="none" xmlns="http://www.w3.org/2000/svg">
<path d="M29.4093 0.134792C14.8945 1.21849 3.33639 7.74633 0.607231 16.3882C-0.423125 19.6258 -0.142242 22.756 1.44988 26.0071C2.38639 27.9065 3.21553 29.0442 4.861 30.689C8.99458 34.8496 15.3759 37.913 22.8808 39.3842C24.0313 39.6118 24.5397 39.6651 24.6066 39.5584C24.6599 39.4781 26.5599 34.6889 28.834 28.9368C31.0946 23.1713 32.9946 18.4489 33.0479 18.4489C33.0878 18.4489 34.7332 23.305 36.7001 29.2312L40.2719 40L40.6196 39.9332C40.8202 39.8933 41.5561 39.759 42.2516 39.6523C50.0373 38.3545 57.7961 34.622 61.7696 30.2744C68.552 22.8769 67.4285 14.1547 58.8534 7.5593C51.9637 2.26168 40.2989 -0.681526 29.4093 0.134792ZM38.5731 2.9173C45.1414 3.92064 50.1312 6.08804 53.6632 9.47215C56.2316 11.9468 57.503 14.5827 57.503 17.4719C57.503 18.4888 57.1283 20.1876 56.6874 21.1909C55.8312 23.1578 53.8644 25.4184 51.5903 27.0503C49.3696 28.656 44.4467 30.876 44.0456 30.4614C43.9517 30.3676 41.4373 26.5817 38.4401 22.0606C35.457 17.5388 32.9554 13.8333 32.8886 13.8333C32.8217 13.8333 30.387 17.5388 27.4573 22.0606C24.5411 26.5824 22.0793 30.3683 21.9989 30.4614C21.7849 30.689 20.0456 30.0867 17.7715 29.003C11.9378 26.2077 8.55367 21.9269 8.54017 17.3781C8.54017 10.3411 17.0484 4.08067 28.3391 2.80994C29.0345 2.72959 29.8238 2.63573 30.0784 2.6094C31.3755 2.46221 36.9141 2.64992 38.5731 2.9173Z" fill="black"/>
</svg>

<svg width="67" height="40" fill="none" xmlns="http://www.w3.org/2000/svg"><path d="M29.41.135C14.894 1.218 3.335 7.746.606 16.388c-1.03 3.238-.75 6.368.843 9.62.936 1.899 1.766 3.036 3.411 4.681 4.134 4.16 10.515 7.224 18.02 8.695 1.15.228 1.659.281 1.726.174.053-.08 1.953-4.87 4.227-10.621 2.26-5.766 4.16-10.488 4.214-10.488.04 0 1.685 4.856 3.652 10.782L40.272 40l.348-.067c.2-.04.936-.174 1.632-.28 7.785-1.298 15.544-5.031 19.518-9.379 6.782-7.397 5.658-16.12-2.917-22.715C51.963 2.262 40.3-.68 29.41.135zm9.163 2.782c6.568 1.004 11.558 3.171 15.09 6.555 2.569 2.475 3.84 5.11 3.84 8 0 1.017-.375 2.716-.816 3.719-.856 1.967-2.823 4.227-5.097 5.86-2.22 1.605-7.143 3.825-7.544 3.41-.094-.093-2.609-3.88-5.606-8.4-2.983-4.522-5.485-8.228-5.551-8.228-.067 0-2.502 3.706-5.432 8.228-2.916 4.521-5.378 8.307-5.458 8.4-.214.228-1.953-.374-4.227-1.458-5.834-2.795-9.218-7.076-9.232-11.625 0-7.037 8.508-13.297 19.8-14.568.695-.08 1.484-.174 1.738-.2 1.297-.148 6.836.04 8.495.307z" fill="#000"/></svg>
